**kern
*staff1
*Ipiano
*clefG2
*k[]
*X:
*M4/8
=1
*^
*	*
12B-XL 12d-X 12a	8r
[24B- [24d- [24a	.
24B-] 24d-] 24a]	12r
24B- 24d- 24a	.
24B-J 24d- 24a	48r
.	48a
24r	4dd-X
24B-LL 24d- 24a	.
[24B- [24d- [24a	.
24B-] 24d-] 24a]	.
24B- 24d- 24a	.
24B-JJ 24d- 24a	.
*	*
=2	=2
24B-XLL 24d-X 24a	8r
24B- 24d- 24a	.
[24B- [24d- [24a	.
24B-] 24d-] 24a]	12r
.	.
24B- 24d- 24a	.
24B-JJ 24d- 24a	48r
.	48a
24r	[8ee
24B-LL 24d- 24a	.
[24B- [24d- [24a	.
24B-] 24d-] 24a]	12eeL_
.	.
24B-J 24d- 24a	.
48r	48eeLL]
48B--Jkk 48dn 48b--	48dd-XJJJ
*	*
=3	=3
*	*
8G-X 8B-- 8dn 8f 8g-X 8b-- 8ddn	2ff
8ryy	.
.	.
.	.
.	.
.	.
.	.
.	.
.	.
.	.
.	.
8ryy	.
.	.
.	.
.	.
.	.
.	.
8ryy	.
.	.
.	.
.	.
.	.
.	.
*v	*v
*
=4
8r
8G-X 8B-- 8d 8f
*^
[8qc#X	.
4c#]	8G-L 8B-- 8d 8f
.	8G-J 8B-- 8d 8f
=5	=5
*	*^
*	*	*
[8c	12cnL	8rff
.	[24e-X [24bn	.
8ryy	24c] 24e-] 24b]	12r
.	24c 24e- 24b	.
.	24cJ 24e- 24b	48r
.	.	48b
*v	*v	*
24r	4ee-X
24cL 24e- 24b	.
[24c [24e- [24b	.
24c] 24e-] 24b]	.
24c 24e- 24b	.
24cJ 24e- 24b	.
*	*
=6	=6
24cLL 24e-X 24b	8r
24c 24e- 24b	.
[24c [24e- [24b	.
24c] 24e-] 24b]	12r
.	.
24c 24e- 24b	.
24cJJ 24e- 24b	48r
.	48b
24r	[8ff#X
24cLL 24e- 24b	.
[24c [24e- [24b	.
24c] 24e-] 24b]	12ff#L_
.	.
24cJ 24e- 24b	.
48r	48ff#LL]
48c-XJkk 48en 48cc-X	48ee-XJJJ
=7	=7
8A-X 8c-X 8en 8g 8a-X 8cc-X 8een	2gg
8ryy	.
.	.
.	.
.	.
.	.
.	.
.	.
.	.
.	.
.	.
8ryy	.
.	.
.	.
.	.
.	.
.	.
8ryy	.
.	.
.	.
.	.
.	.
.	.
*	*
=8	=8
8r	8r
8A-X 8c-X 8e 8g	12r
.	48r
.	48cc#X
24r	[8gg#X
24dLL 24f 24cc#	.
[24d [24f [24cc#	.
24d] 24f] 24cc#]	12gg#L_
.	.
24dJ 24f 24cc#	.
48r	48gg#LL]
48d-XJkk 48f#X 48dd-X	48ffnJJJ
=9	=9
*	*
8B-X 8d-X 8f#X 8a 8b-X 8dd-X 8ff#X	[4.aa
8ryy	.
.	.
.	.
.	.
.	.
.	.
.	.
.	.
.	.
.	.
8ryy	.
.	.
.	.
.	.
.	.
.	.
8ryy	12aaL_
.	.
.	.
.	.
.	48aaLL]
.	48ffnJJJ
*	*
=10	=10
8B-X 8d-X 8f#X 8a	8b-X 8dd-X 8ff#X 8aa
*v	*v
8B- 8d- 8f# 8a
.
.
8B-L 8d- 8f# 8a
8B-J 8d- 8f# 8a
.
.
=11
4B-X 4d-X 4f#X 4a
*
4E 4G 4B#X 4d#X
.
.
.
=12
*
8r
8b-X 8dd-X 8ff#X 8aa
8b-L 8dd- 8ff# 8aa
8b-J 8dd- 8ff# 8aa
.
.
=13
8b-XL 8dd-X 8ff#X 8aa
8gJ 8b- 8dd#X 8ff#
8eL 8g 8b#X 8dd#
8gJ 8b-X 8dd# 8ff#
.
.
*
=14
8b-XL 8dd-X 8ff#X 8aa
8gJ 8b- 8dd#X 8ff#
8eL 8g 8b#X 8dd#
8d-XJ 8f-X 8a 8cc
.
.
=15
8B-XL 8d-X 8f#X 8a
8GJ 8B- 8d#X 8f#
8EL 8G 8B#X 8d#
8GJ 8B-X 8d# 8f#
.
.
*
=16
8B-XL 8d-X 8f#X 8a
8GJ 8B- 8d#X 8f#
*clefF4
8EL 8G 8B#X 8d#X
16D-XJk 16F-X 16A 16c
.
16r
.
=17||
*M6/8
8r
8r
24ELL
24G
24B#XJJ
[4.D#X
*
.
.
*
=18
4D#]
.
24ELL
24G
24B#XJJ
4d#X
*clefG2
24eLL
24g
.
24b#XJJ
=19
*
*
[2.dd#X
.
.
.
.
.
=20
4.dd#_
.
.
8dd#]
8r
*clefF4
24ELL
24G
24B#XJJ
*
=21
4D#X
.
24ELL
24G
24B#XJJ
4d#X
*clefG2
24eLL
24g
.
24b#XJJ
=22
4d#X
24eLL
24g
24b#XJJ
4dd#X
24cLL
24e-X
.
24g#XJJ
=23
4Bn
24cLL
24e-X
24g#XJJ
4bn
.
24ccLL
24ee-X
24gg#XJJ
=24
4b
24ccLL
24ee-X
24gg#XJJ
4bb
24cccLL
24eee-X
.
24ggg#XJJ
=25
4bbb
*clefF4
16r
16GG#X
[4.E-X
=26
8.E-]
8.C 8.E-X 8.G#X 8.B
*
8.CL 8.E- 8.G# 8.B
8.CJ 8.E- 8.G# 8.B
=27
*^
4C 4E-X 4G#X 4B	4r
8r	8r
4r	[4.g#X
8r	.
=28	=28
4C 4E-X 4G#X 4B	8g#]
.	8r
8r	8r
4r	4.g#X
8r	.
*clefG2	*
*v	*v
=29||
*^
*M6/8	*M6/8
2.B#X 2.f#X	4r
.	.
.	.
.	8r
.	.
.	[4.a
.	.
.	.
.	.
.	.
=30	=30
4.B#X 4.f#X	4a]
.	.
.	.
.	[8a#X
.	.
[4.B#	8a#L]
.	.
.	8g#X
.	.
.	8f#J
.	.
=31	=31
*	*^
4.B#\]	8ryy	8e#XL
.	.	.
.	[4c##	8c##X
.	.	.
.	.	[8f#XJ
.	.	.
[4.B#X\	4c##]	4.f#_
.	.	.
.	.	.
.	.	.
.	8c##	.
.	.	.
*	*v	*v
=32	=32
4.B#] 4.c##	4.f#_
.	.
.	.
.	.
.	.
4B#X 4c##	8f#L]
.	.
.	8a
.	.
8f#X 8g##	8cc##XJ
.	.
*	*
=33	=33
*	*
4.e#X 4.a#X	[4.ee#X
.	.
.	.
.	.
4.f#X 4.an	4ee#]
*	*
.	.
.	.
.	.
*	*
.	.
.	8cc##X
=34	=34
.	.
4.e#X 4.a#X	[4.ee#X
4.f#X 4.an	4ee#]
*	*
.	.
.	.
.	.
*	*
.	.
.	8cc##X
=35	=35
.	.
4.e#X 4.a#X	4.ee#X
[8qcn [8qe-X [8qg#X [8qbn\	.
4.c_ 4.e-_ 4.g#_ 4.b_	[4.gg#X
.	.
*	*
.	.
*v	*v
*
=36||
*M4/8
*^
*	*
8c] 8e-] 8g#] 8b]	8gg#]
*v	*v
8cc 8ee-X 8gg#X 8bb
8ccL 8ee- 8gg# 8bb
8ccJ 8ee- 8gg# 8bb
.
.
=37
8ccL 8ee-X 8gg#X 8bb
8aJ 8cc 8ee#X 8gg#
8f#XL 8a 8cc##X 8ee#
8aJ 8ccn 8ee# 8gg#
.
.
*
*
=38
8ccL 8ee-X 8gg#X 8bb
8aJ 8cc 8ee#X 8gg#
8f#XL 8a 8cc##X 8ee#
8e-XJ 8g-X 8b 8dd
=39||
*M6/8
*^
*	*^
2.B#X\	4r	8raa
.	.	.
.	.	8aaL
.	.	.
.	8r	[8eee#XJ
.	.	.
.	[4.a	40%3eee#L]
.	.	.
.	.	40%3ccc##X
.	.	.
.	.	40%3bb#X
.	.	.
.	.	40%3aa
.	.	40%3ff#XJ
.	.	.
=40	=40	=40
4.B#X\	4a]	4ee#X
.	.	.
.	.	.
.	[8a#X	8raa
.	.	.
[4.B#\	8a#L]	4raa
.	.	.
.	8g#X	.
.	.	.
.	8f#XJ	8raa
.	.	.
=41	=41	=41
4.B#\]	8e#XL	8rff
.	.	.
.	8c##X	8aL
.	.	.
.	[8f#XJ	[8ee#XJ
.	.	.
[4.B#X\	4.f#_	40%3ee#L]
.	.	.
.	.	40%3cc##X
.	.	.
.	.	40%3b#X
.	.	.
.	.	40%3a
.	.	40%3f#J
.	.	.
=42	=42	=42
4.B#\]	4.f#]	4.e#X
.	.	.
.	.	.
.	.	.
.	.	.
*	*v	*v
40%3e#L	8f#XL
.	.
40%3c##X	.
.	8a
40%3B#X	.
40%3A	.
.	8cc##XJ
40%3F#XJ	.
*v	*v
*
=43
*
*
16qf#XLL
16qa#X
16qb#X
16qcc##XJJ
*^
40%3f#L 40%3a#	[4.ee#X
.	.
40%3cc##	.
40%3b#	.
.	.
40%3a#	.
.	.
40%3f#J	.
.	.
4.f# 4.an	4ee#]
.	.
.	.
.	.
.	8cc##
.	.
=44	=44
.	16qf#LL
.	16qa#
.	16qb#
.	16qcc##JJ
40%3f#L 40%3a#	[4.ee#X
.	.
40%3cc##	.
40%3b#	.
.	.
40%3a#	.
.	.
40%3f#J	.
.	.
4.f# 4.an	4ee#]
.	.
.	.
.	.
.	.
.	8cc##
.	.
=45	=45
.	16qf#LL
.	16qa#
.	16qb#
.	16qcc##JJ
40%3f#L 40%3a#	4.ee#X
.	.
40%3cc##	.
40%3b#	.
.	.
40%3a#	.
.	.
40%3f#J	.
.	.
40%3anL 40%3ccn	[4.gg#X
40%3ee#	.
40%3dd#X	.
40%3cc	.
40%3aJ	.
=46	=46
40%3g#XL	4.gg#]
40%3e#X	.
40%3d#X	.
40%3c	.
.	.
40%3AJ	.
*v	*v
.
40%3ccL 40%3ee-X 40%3bb
40%3gg#X
40%3ff#X
40%3ee-
40%3ccJ
=47
4r
8r
.
40%3dddL
40%3bb
40%3aa
40%3gg-X
.
40%3ee-XJ
=48
*^
40%3ddL	4.dd
40%3b	.
40%3a	.
40%3g-X	.
.	.
40%3e-XJ	.
8f#XL	40%3gg#XL
.	40%3ee#X
8e#X	.
.	40%3dd#X
.	.
.	40%3cc
8d#XJ	.
.	40%3aJ
.	.
=49	=49
4r	8dnL
.	8B
.	.
8r	[8e-XJ
.	.
40%3dL	8e-L]
40%3B	.
.	8g-X
40%3A	.
40%3G-X	.
.	8bJ
40%3E-XJ	.
=50	=50
4.D	4.dd
.	.
.	.
.	.
.	.
.	.
8f#XL	40%3gg#XL
.	40%3ee#X
8e#X	.
.	40%3dd#X
.	40%3cc
8d#XJ	.
.	40%3aJ
*v	*v
*
=51
4r
8r
.
40%3ddnL
40%3b
40%3a
40%3g-X
.
40%3e-XJ
*
*clefF4
=52
*^
*	*
40%3dL	4.d
40%3B	.
40%3A	.
40%3G-X	.
.	.
40%3E-XJ	.
8F#XL	40%3g#XL
.	40%3e#X
8E#X	.
.	40%3d#X
.	.
.	40%3c
8D#XJ	.
.	40%3AJ
.	.
=53	=53
4r	8DnL
.	8BB
.	.
8r	[8E-XJ
.	.
32%3DL	8E-L]
32%3BB	.
.	8G-X
32%3AA	.
.	8BJ
32%3GG-XJ	.
=54	=54
4r	4.d
.	.
.	.
8r	.
.	.
*	*
.	.
8F#XL	40%3g#XL
.	40%3e#X
8E#X	.
.	40%3d#X
.	40%3c
8D#XJ	.
.	40%3AJ
*v	*v
=55
4r
8r
.
40%3dnL
40%3B
40%3A
40%3G-X
.
40%3E-XJ
=56
*^
32%3DL	4.D
32%3BB	.
32%3AA	.
.	.
32%3GG-XJ	.
.	.
8F#XL	40%3g#XL
.	40%3e#X
8E#X	.
.	40%3d#X
.	40%3c
8D#XJ	.
.	40%3AJ
*v	*v
=57
4r
8r
.
32%3DnL
32%3BB
32%3AAJ
.
32%3r
*
=58
2.r
.
.
=59
2.r
*clefG2
=60||
*M2/4
20ccc##XLL
20bb
20aa
20ff#X
20dd#XJJ
20cc##XLL
20b
20a
.
20f#X
20d#XJJ
=61
*^
8F#X 8B#X	12r
.	12aaL
8r	.
.	[12eee#XJ
8qa	.
50ee#XLLL	20eee#LL]
50cc##X	.
50b#X	.
.	20ccc##X
50a	.
50f#XJJJ	.
10r	20bb#X
.	20aa
20r	20ff#XJJ
=62	=62
*	*^
4ryy	4rf	4ee#X
.	.	.
.	.	.
.	.	.
6B#X\	4a	4rff
12c#X\	.	.
*	*v	*v
*	*
=63	=63
8d 8g#X	12r
.	12ffnL
8r	.
.	[12ccc#XJ
8qf	.
50cc#XLLL	20ccc#LL]
50a#X	.
50g#	.
.	20aa#X
50f	.
50dJJJ	.
10r	20gg#X
.	20ff
20r	20ddJJ
=64	=64
*	*
4r	4cc#X
.	.
.	.
.	.
6d 6g#X	4r
12c#X 12an	.
*	*
=65	=65
12cnL 12b-X	12r
12d-XJ 12a	12dd-XL
.	.
12r	[12aaJ
8qd-	.
50aLLL	20aaLL]
50f#X	.
50e	.
.	20ff#X
50d-	.
50B-XJJJ	.
10r	20ee
.	20dd-
20r	20b-JJ
=66	=66
*	*^
4ryy	4r	4a
.	.	.
.	.	.
4B#\	6e	[4a
.	12e#X	.
*	*v	*v
*v	*v
*
=67
[4B#X [4f#X 4a_
6B#] 6f#] 6a]
[12B# 12e#X [12a
=68
4B#_ [4f#X 4a_
6B#] 6f#] 6a]
[12B#X 12e#X [12a
=69
4B#] 4f#X 4a]
*^
.	8qb#X
4a	60gg#XLLL
.	60ee#X
.	60cc##X
.	60b#
.	60aJJJ
.	12r
.	.
.	12r
=70	=70
[8qa	.
6a]	60ee#XLLL
.	60cc##X
.	60b#X
.	60a
.	60f#XJJJ
.	12r
.	.
[12a#X	12r
12a#L]	4r
12g#X	.
.	.
12f#J	.
*v	*v
=71
12r
12e#XL
.
12c##XJ
4c## 4e# [4f#X
=72
12f#L]
12a
.
12cc##XJ
36f#XLL
36a
36ddJJ
6ee#X
.
=73
*
8ryy
.
.
.
.
.
12ryy
.
.
.
.
24ff#
12ryy
.
.
.
.
.
24aa
12ryy
.
.
.
24ee#
=74
12ryy
.
.
.
.
24gg#
12ryy
.
.
.
.
24gg#
*
.
.
*
4F# 4c
.
.
*
=75
*^
4a#X	[8ee#X
.	.
.	.
.	.
.	12ee#L]
.	24eenJk
4en	[8bn
.	.
.	.
.	.
.	12bL]
.	24b-XJk
=76	=76
4e	[8bn
.	.
.	.
.	.
.	12bL]
.	24b-XJk
4A#X	[8e#X
.	.
.	.
.	.
.	12e#L]
.	24enJk
*v	*v
=77||
*M4/8
*^
*	*
12F#XL 12An 12e#X	8r
[24F# [24A [24e#	.
24F#] 24A] 24e#]	12r
24F# 24A 24e#	.
24F#JJ 24A 24e#	48r
.	48e#
24r	8a
24F#LL 24A 24e#	.
[24F# [24A [24e#	.
24F#] 24A] 24e#]	8r
24F# 24A 24e#	.
24F#JJ 24A 24e#	.
*	*
=78	=78
24F#XLL 24A 24e#X	8r
24F# 24A 24e#	.
[24F# [24A [24e#	.
24F#] 24A] 24e#]	12r
.	.
24F# 24A 24e#	.
24F#JJ 24A 24e#	48r
.	48e#
24r	[8b#X
24F#LL 24A 24e#	.
[24F# [24A [24e#	.
24F#] 24A] 24e#]	12b#L_
.	.
24F#J 24A 24e#	.
48r	48b#LL]
48FnJkk 48A#X 48fn	48anJJJ
*	*
=79	=79
*	*
8D 8F 8A#X 8c#X 8d 8f 8a#X	2cc#X
8ryy	.
.	.
.	.
.	.
.	.
.	.
.	.
.	.
.	.
.	.
4ryy	.
.	.
.	.
.	.
.	.
.	.
.	.
.	.
.	.
.	.
.	.
.	.
*v	*v
=80
4r
.
[8qAn
4A]
.
*
=81||
*M6/8
*^
8qA-X	.
[2.d [2.a-X	4r
.	8r
.	[4.cc-X
.	.
=82	=82
4.d] 4.a-]	4cc-]
.	[8ccn
4.d	8ccL]
.	8b-X
.	8a-XJ
=83	=83
*^	*
[4.d\	8ryy	8gL
.	[4e	8e
.	.	[8a-XJ
8dL] 8e]	8ryy	8a-L]
[[16d\L	16ryy	8cc-X
16e	[8.e/	.
16g	.	8eeJ
[16a-JJ	.	.
*	*v	*v
=84	=84
4.a-] 4.d__ 4.e_ 4.cc-X	4.gg
4.d]] 4.e]	8a-XL
.	8cc-
.	8eeJ
=85	=85
*	*
4.A- 4.c- 4.d 4.e	4.g
*	*^
[4.a-\	8ryy	8a-L
.	[4cc-	8cc-
.	.	[8eeJ
*	*v	*v
=86	=86
8cc-L]	4.a-_ 4.ee_ [4.gg
8cc-X	.
.	.
[8ccnJ	.
.	.
8ccL]	8a-] 8ee] 8gg]
8b-X	8r
8a-XJ	8r
=87	=87
*	*^
4.A-X\ [4.d	8ryy	8gL
.	.	.
.	[4e	8e
.	.	.
.	.	[8a-XJ
.	.	.
8dL] 8e\]	8ryy	8a-L]
[[16dL	16ryy	8cc-X
16e	[8.e/	.
16g	.	8eeJ
[16a-JJ	.	.
=88	=88	=88
8ryy	8d]] 8e] 8a-] 8cc-X	[4.gg
.	.	.
[4an	8ccnL	.
.	.	.
.	[8cc#XJ	.
.	.	.
*	*v	*v
8cc#L\]	8a] 8gg]
8b	8r
8aJ	8r
*v	*v
=89||
*M4/8
*^
*	*
12g#XL	8r
[24Gn [24B-X [24f#X	.
24G] 24B-] 24f#]	12r
24G 24B- 24f#	.
24GJJ 24B- 24f#	48r
.	48f#
24r	4b-X
24GLL 24B- 24f#	.
[24G [24B- [24f#	.
24G] 24B-] 24f#]	.
24G 24B- 24f#	.
24GJJ 24B- 24f#	.
=90	=90
24GLL 24B-X 24f#X	8r
24G 24B- 24f#	.
[24G [24B- [24f#	.
24G] 24B-] 24f#]	12r
.	.
24G 24B- 24f#	.
24GJJ 24B- 24f#	48r
.	48f#
24r	[8cc#
24GLL 24B- 24f#	.
[24G [24B- [24f#	.
24G] 24B-] 24f#]	12cc#_L
.	.
24G 24B- 24f#	.
48r	48cc#]LL
48G-XJJ 48Bn 48g-X	48b-XJJJ
*	*
=91	=91
8E-X 8G-X 8B 8d 8e-X 8g-X 8bn	2dd
8ryy	.
.	.
.	.
.	.
.	.
.	.
.	.
.	.
.	.
.	.
8ryy	.
.	.
.	.
.	.
.	.
.	.
8ryy	.
.	.
.	.
.	.
.	.
.	.
*v	*v
=92
4r
.
[8qA#X
4A#]
.
*
=93||
*^
*	*^
*M6/8	*M6/8	*M6/8
8qAn	.	.
[2.d#X\ [2.an	4ryy	8r
.	.	8cccL
.	8ryy	[8ggg#XJ
.	[4.cc/	40%3ggg#L]
.	.	40%3eee#X
.	.	.
.	.	40%3ddd#X
.	.	40%3ccc
.	.	40%3aaJ
=94	=94	=94
4.d#\] 4.a]	4cc/]	4gg#X
.	[8cc#X/	8rccc
[4.d#\	8cc#/L]	4rccc
.	8b	.
.	8aJ	8rccc
*	*v	*v
=95	=95
*	*
*	*
4.d#]	8g#XL
.	8e#X
.	[8aJ
4r	8aL]
.	.
.	8ccn
.	.
.	.
8r	8ee#XJ
.	.
*v	*v
=96
[4.gg#X
8.gg#L]
16aL
16cc
16ee#XJJ
*
=97
*^
[4.A [4.c [4.d#X [4.e#X	[4.g#X
.	.
.	.
.	.
8.A] 8.c] 8.d#] 8.e#]	8.g#L]
16r	16aL
8r	16cc
.	16ee#XJJ
=98	=98
8ccL	[4.a [4.ee#X [4.gg#X
8cc	.
.	.
[8cc#XJ	.
.	.
8cc#L]	8a] 8ee#] 8gg#]
8b	8r
8aJ	8r
=99	=99
*	*
*^	*
4A\ 4c#X	8g#X/L	4.ryy
.	8e#X	.
8A\ 8cn	[8aJ	.
.	.	8qccc
8ryy	8aL]	40%3ggg#XL
.	.	40%3eee#X
16d#\LL	8cc	.
.	.	40%3ddd#X
16e#	.	.
.	.	40%3ccc
16g#	8ee#XJ	.
.	.	40%3aaJ
16aJJ	.	.
*	*	*
=100	=100	=100
8ryy	8ccL	[4.gg#X
.	.	.
[4a	8cc	.
.	.	.
.	[8cc#XJ	.
.	.	.
*	*v	*v
8a] 8cc#L]	8gg#]
8b	8r
8aJ	8r
=101	=101
4A 4c#X	8g#XL
.	8e#X
[8c#	[8aJ
8c#L]	8a]
8B	8r
8AJ	8r
=102	=102
*	*^
8G#X\L	4A 4c#X/	8rff
8E#X	.	8rff
[8AJ [8e#X	8ryy	[8cc#X
4.A\] 4.e#]	4ryy	8cc#L]
.	.	8b
.	8ryy	8aJ
*v	*v	*
=103	=103
4e-X	4.B 4.a-X
8d 8f	.
8qa-	.
40%3eenL	[4.aa-X
40%3cc#X	.
40%3b	.
40%3a-	.
40%3fJ	.
=104	=104
4.en	4.aa-]
.	.
.	.
.	.
.	.
4r	8aa-XL
.	8gg
8r	8ffJ
=105	=105
4.f 4.a-X 4.cc#X	8eeL
.	.
.	8cc#
.	.
.	.
.	[8ffJ
.	.
4r	8ffL]
.	8aa-X
8r	8ccc#XJ
.	.
*v	*v
=106
16qffLL
16qaa-X
16qccc#XJJ
2.eee
.
.
.
=107
8r
8eL
8c#XJ
[8.fL
16fL]
16a-X
16cc#XJJ
=108
16qfLL
16qa-X
16qcc#XJJ
[2.ee
=109
8ee]
8r
8r
*
8qbb
16gggLL
16eee
16ccc#X
16bb
16aa-XJJ
16r
=110
8qaa-X
16eeeLL
16ccc#X
16bb
16aa-
16ffJJ
16r
*
*^
.	8qb
8anL	16ggLL
.	16ee
8g	16cc#X
.	16b
8fJ	16aJJ
.	16r
*v	*v
=111
8FL 8A-X 8c#X 8e
.
8c#
.
.
[8fJ
.
8fL]
8a-X
8cc#XJ
.
=112
16qfLL
16qa-X
16qcc#XJJ
[2.ee
=113
8ee]
8r
8r
*
8qbb
40gggLLL
40eee
40ccc#X
40bb
40aa-XJJJ
8r
8r
=114
*^
.	8qaa-X
8r	40eeeLLL
.	40ccc#X
.	40bb
.	40aa-
.	40ffJJJ
8r	8r
[8an	8r
*	*
.	8qb
8aL]	40ggLLL
.	40ee
.	40cc#X
.	40b
.	40aJJJ
8g	8r
8fJ	8r
*v	*v
=115
8r
8eL
8c#XJ
4.c# 4.e [4.f
=116
8fL]
8a-X
8cc#XJ
24fLL
24a-
24dd-XJJ
4ee
.
=117
32%3r
32%3fL
32%3a-X
32%3dd-XJ
4.ee
.
.
=118
32%3r
32%3a-XL
32%3cc-X
32%3eeJ
4.gg
.
.
=119||
*M2/4
*
8ryy
.
.
.
.
.
12ryy
.
.
.
.
24aa-
12ryy
.
.
.
.
.
24ccc-
12ryy
.
.
.
[24gg
=120
*^
4ryy	12gg_L
.	.
.	.
.	24gg_J
.	8gg]
8b-L	4c- 4f 4cc-
8b--J	.
=121	=121
8a-X\	8cn 8dn 8ccn
*v	*v
12ryy
.
.
.
.
24aa-
12ryy
.
.
.
.
.
24ccc-
12ryy
.
.
.
[24gg
=122
12gg_L
.
.
24gg_J
8gg/]
*
*^
8gnL	4A-X 4d 4a-X
8g-J	.
=123	=123
8f\	8An 8Bn 8an
*v	*v
*
12ryy
.
.
.
.
24ff
12ryy
.
.
.
.
.
24aa-
12ryy
.
.
.
[24ee
=124
12ee_L
.
.
24ee_J
8ee_/
12ee_L
.
.
24ee_J
8ee/]
*
=125
8r
12r
24c#X
[8a-X
12a-L]
24fJk
=126
[8an
12aL]
24e-Jk
[8b-X/
12b-L]
24gJk
=127||
*M6/8
4r
.
.
.
8r
*^
.	16qfLL
.	16qcc-X
[8.qee--\	16qee--
.	16qccc-X
.	16qeee--JJ
4.ee--_	16bbb-XLL
.	16ggg
.	16fff
.	16eee--
.	16ccc-JJ
.	16r
=128	=128
4ee--]	4.bb-X
.	.
.	.
.	.
[8ee-X	.
*	*
8ee-L]	4r
.	.
8dd-X	.
.	.
8cc-XJ	8r
=129	=129
.	.
4.c-X 4.f	8b-XL
.	8g
.	[8cc-XJ
8qe--	.
*	*
16b-LL	8cc-L]
16g	.
16f	8ee--
16e--	.
16c-JJ	8ggJ
16r	.
=130	=130
4.B-X	[4.bb-X
.	.
4r	8.bb-L]
.	16ccc-XL
8r	16eee--
.	16gggJJ
*v	*v
=131
16qcc-XLL
16qee--
16qff
16qggJJ
[4.bb-X
8.bb-L]
*
16ccc-XL
*
.
.
16eee--
.
.
16gggJJ
.
.
*
=132
*^
8ryy	8ccc-X 8eee-- 8fff 8ggg 8bbb-X
*	*
.	.
8ffL	[4dd [4aa#X [4ccc#X
.	.
[8ff#XJ	.
.	.
8ff#L]	8dd] 8aa#] 8ccc#]
8een	8r
8ddJ	8r
=133	=133
4d 4f#X	8cc#XL
.	8a#X
8d 8fn	[8ddJ
.	.
*	*^
8rf	8ddL]	24cccc#XLL
.	.	24aaa#X
.	.	24ggg#X
16g#X\LL	8ffn	24fff
.	.	24dddJJ
16a#	.	.
.	.	24reee
16cc#	8aa#XJ	8reee
16ddJJ	.	.
*	*v	*v
*	*
=134	=134
8ff	8ccc#X
[4ff#X [4gg#X [4ggg#X	8ccc#L
.	.
.	.
.	[8dddJ
.	.
.	.
8ff#] 8gg#] 8ggg#]	8dddL]
8r	8cccn
8r	8bb-XJ
=135	=135
*	*
8r	8aaL
8r	8ff#X
[8dd	[8bb-XJ
8ddL]	8bb-]
8cc	8r
8b-XJ	8r
=136	=136
8aL	8r
8f#X	8r
[8qb-X	.
8b-J_	[8ddd
.	.
8b-]	8dddL]
8r	8ccc
.	.
8r	8bb-XJ
*	*
=137	=137
4ee	4.a 4.b#X 4.aa
8dd#X 8ff#X	.
8qa\	.
40%3ee#XL	[4.aa
40%3cc##X	.
40%3b#	.
40%3a	.
40%3f#XJ	.
=138	=138
4e#X	4.aa]
.	.
.	.
.	.
8r	.
.	.
4r	8aaL
.	8gg#X
8r	8ff#XJ
*v	*v
=139
8f#XL 8a 8cc##X 8ee#X
.
8cc##
.
.
[8ff#XJ
.
8ff#L]
8aa
8ccc##XJ
.
=140
16qff#XLL
16qaa
16qccc##XJJ
[2.eee#X
=141
8eee#]
8r
8r
8qbb#X
*
40ggg#XLLL
40eee#X
40ccc##X
40bb#
40aaJJJ
8r
8r
=142
8qaa
40eee#XLLL
40ccc##X
40bb#X
40aa
40ff#XJJJ
8r
*^
[8a#	8r
*	*
.	8qb#X
8a#L]	40gg#XLLL
.	40ee#X
.	40cc##X
.	40b#
.	40a#JJJ
8g#X	8r
8f#XJ	8r
*v	*v
=143
8F#XL 8c##X 8e#X
.
8c##
.
.
[8f#XJ
.
8f#L]
8an
8cc##XJ
.
=144
16qf#XLL
16qa
16qcc##XJJ
N[2.ee#X
*
=145
4r
.
8r
*
8qbb#
40ggg#LLL
40eee#
40ccc##
40bb#
40aaJJJ
8r
8r
=146
8qaa
40eee#LLL
40ccc##
40bb#
40aa
40ff#JJJ
8r
8r
*
8qb#
40gg#LLL
40ee#
40cc##
40b#
40a#JJJ
8r
8r
=147
8qan
40ee#LLL
40cc##
40b#
40a
40f#JJJ
8r
8r
*
8qbb#
40ggg#LLL
40eee#
40ccc##
40bb#
40aaJJJ
8r
8r
=148
8qaa
40eee#LLL
40ccc##
40bb#
40aa
40ff#JJJ
8r
8r
*
4r
.
.
8r
.
=149
*
2.r
.
.
.
.
*
.
.
.
.
.
.
.
.
*
=150
2.r
.
.
.
.
.
.
*
*
=151
16qf#XLL
16qa
16qb#X
16qcc##XJJ
8.ee#XL
.
.
16ff#XL
16aa
16ccc##XJJ
16qff#LL
16qaa
16qbb#X
16qccc##JJ
8.eee#XL
.
.
16ff#L
16aa
16ccc##JJ
=152
16qf#XLL
16qa
16qb#X
16qcc##XJJ
8.ee#XL
.
.
16ff#XL
16aa
16ccc##XJJ
16qff#LL
16qaa
16qbb#X
16qccc##JJ
8.eee#XL
.
.
16bbnL
16ddd
16fff##XJJ
=153
*^
[4.b [4.dd [4.ee#X [4.ff##X	[4.aa#X
.	.
.	.
8.b] 8.dd] 8.ee#] 8.ff##]	8.aa#L]
48BLLL	16bbL
*cue	*
48d	.
48e#X	.
48f##X	16ddd
48a#X	.
48b	.
48dd	16fff##XJJ
48ee#	.
48ff##JJJ	.
*Xcue	*
=154	=154
8aa#X	[4.bb [4.ddd [4.eee#X [4.fff##X [4.aaa#X
8r	.
8r	.
4r	8.bbL] 8.ddd] 8.eee#] 8.fff##] 8.aaa#]
.	16bbL
8r	16ddd
.	16fff##JJ
*v	*v
=155
*
16qbLL
16qdd
16qee#X
16qff##XJJ
8.aa#XL
.
.
16bbL
16ddd
16fff##XJJ
16qbbLL
16qddd
16qeee#X
16qfff##JJ
*
8.aaa#XL
.
.
16bbL
16ddd
16fff##JJ
*
=156
16qbLL
16qdd
16qee#X
16qff##XJJ
8.aa#XL
.
.
16bbL
16ddd
16fff##XJJ
16qbbLL
16qddd
16qeee#X
16qfff##JJ
*
4aaa#
.
.
*
32r
*8va
32dddLLL
32fffn
32aaa#XJJJ
*
*
=157
4ddd 4fff 4aaa#X 4cccc#X
4aa-X 4ccc-X 4eee 4ggg
.
8r
*
*
32r
32dddLLL
32fff
32aaa#XJJJ
*
*
=158
4ddd 4fff 4aaa#X 4cccc#X
4aa-X 4ccc-X 4eee 4ggg
.
8r
*
*
32r
32fffLLL
32aaa-X
32cccc#XJJJ
*
*
=159
4eee 4fff 4aaa-X 4cccc#X 4eeee
4ccc-X 4eee-- 4ggg 4bbb-X
.
8r
*
*
32r
32fffLLL
32aaa-
32cccc#XJJJ
*
*
=160
4eee 4fff 4aaa-X 4cccc#X 4eeee
4ccc-X 4eee-- 4ggg 4bbb-X
.
8r
32r
32aaa-LLL
32cccc-X
32eeeenJJJ
*
=161
*
8b-X 8ee 8ccc-X 8aaa-X 8cccc-X 8eeee 8gggg
*X8va
8r
8r
.
*clefF4
8DL 8F 8A#X 8c#X
8C-XJ 8E 8G
8r
.
=162
4r
.
8r
.
8FL 8A-X 8c#X 8e
8E--J 8G 8B-X
8r
.
=163
4r
.
*
8r
.
*clefG2
8A-XL 8c-X 8e 8g
8FJ 8A#X 8c#X
8r
.
=164
8c-XL 8e-- 8g 8b-X
8A-XJ 8c#X 8en
8r
.
8dL 8f 8a#X 8cc#X
8c-XJ 8e 8g
32r
*8va
32bbbnLLL
32dddd
32ffff##XJJJ
=165
*
8cc#X 8ff##X 8ddd 8bbb 8dddd 8ffff##X 8aaaa#X
*X8va
8r
8r
.
*clefF4
8FnL 8A-X 8c#X 8e
8DJ 8G 8B-X
8r
.
=166
4r
.
8r
.
8A-XL 8c-X 8e 8g
8FnJ 8A#X 8c#X
8r
.
*clefG2
=167
4r
.
*
8r
.
8c-XL 8e-- 8g 8b-X
8A-XJ 8c#X 8en
8r
.
=168
8dL 8fn 8a#X 8cc#X
8c-XJ 8e 8g
8r
.
8fnL 8a-X 8cc#X 8ee
8e--J 8g 8b-X
8r
=169||
*^
*M4/8	*M4/8
8r	12a-XL 12cc-X 12een 12gg
.	.
.	.
.	[24a-Jk [24cc- [24ee [24gg
.	.
12r	24a-LL] 24cc-] 24ee] 24gg]
.	.
.	24a- 24cc- 24ee 24gg
.	.
48r	24a-JJ 24cc- 24ee 24gg
.	.
48E	.
4A-X	24r
.	.
.	24a-LL 24cc- 24ee 24gg
.	.
.	[24a-JJ [24cc- [24ee [24gg
.	.
.	24a-LL] 24cc-] 24ee] 24gg]
.	.
.	24a- 24cc- 24ee 24gg
.	.
.	24a-JJ 24cc- 24ee 24gg
.	.
=170	=170
8r	24a-XLL 24cc-X 24ee 24gg
.	.
.	24a- 24cc- 24ee 24gg
.	.
.	[24a-JJ [24cc- [24ee [24gg
.	.
12r	24a-LL] 24cc-] 24ee] 24gg]
.	.
.	24a- 24cc- 24ee 24gg
.	.
48r	24a-JJ 24cc- 24ee 24gg
.	.
48E	.
[8c-X	24r
.	.
.	24a-LL 24cc- 24ee 24gg
.	.
.	[24a-JJ [24cc- [24ee [24gg
.	.
12c-L_	24a-LL] 24cc-] 24ee] 24gg]
.	.
.	24a- 24cc- 24ee 24gg
.	.
48c-LL]	24a-JJ 24cc- 24ee 24gg
.	.
48A-XJJJ	.
=171	=171
[2cn	8..r
.	32dd-X 32ff#X 32aan
.	8..ff-XL 8..aa-- 8..ccc 8..eee-X
.	.
.	.
.	.
.	.
.	.
.	.
.	32dd-Jkk 32ff#X 32aan
=172	=172
4c]	8ff-XL 8aa-- 8ccc 8eee-X
.	.
.	.
.	.
.	8f-XJ 8a-- 8cc 8ee-X
.	.
.	.
[8qb	.
4b]	8f-L 8a-- 8cc 8ee-
.	8f-J 8a-- 8cc 8ee-
=173	=173
8r	12b-XL 12dd-X 12ff#X 12aan
.	.
.	.
.	[24b-Jk [24dd- [24ff# [24aa
.	.
12r	24b-LL] 24dd-] 24ff#] 24aa]
.	.
.	24b- 24dd- 24ff# 24aa
.	.
48r	24b-JJ 24dd- 24ff# 24aa
.	.
48F#X	.
8B-X	24r
.	.
.	24b-LL 24dd- 24ff# 24aa
.	.
.	[24b-JJ [24dd- [24ff# [24aa
.	.
8ryy	24b-LL] 24dd-] 24ff#] 24aa/]
.	.
.	24b- 24dd- 24ff# 24aa
.	.
.	24b-JJ 24dd- 24ff# 24aa
.	.
=174	=174
8r	24b-XLL 24dd-X 24ff#X 24aa
.	.
.	24b- 24dd- 24ff# 24aa
.	.
.	[24b-JJ [24dd- [24ff# [24aa
.	.
12r	24b-LL] 24dd-] 24ff#] 24aa]
.	.
.	24b- 24dd- 24ff# 24aa
.	.
48r	24b-JJ 24dd- 24ff# 24aa
.	.
48F#X	.
[8d-X	24r
.	.
.	24b-LL 24dd- 24ff# 24aa
.	.
.	[24b-JJ [24dd- [24ff# [24aa
.	.
12d-L_	24b-LL] 24dd-] 24ff#] 24aa]
.	.
.	24b- 24dd- 24ff# 24aa
.	.
48d-LL]	24b-JJ 24dd- 24ff# 24aa
.	.
48B-XJJJ	.
=175	=175
[2dn	8..r
.	32ee-X 32gg#X 32bbn
.	8..gg-XL 8..bb-- 8..ddd 8..fffn
.	.
.	.
.	.
.	.
.	.
.	.
.	32ee-Jkk 32gg#X 32bbn
=176	=176
8d_	4gg-X 4bb-- 4ddd 4fff
.	.
.	.
.	.
12d]	.
.	.
.	.
48r	.
48G#X	.
[8e-X	4r
12e-L]	.
24cJk	.
=177	=177
[2en	8..r
.	32ffn 32aa#X 32ccc#X
.	8..aa-XL 8..ccc-X 8..eee 8..gggn
.	.
.	.
.	.
.	.
.	.
.	.
.	32ffJkk 32aa#X 32ccc#X
=178	=178
4e]	8..aa-XL 8..ccc-X 8..eee 8..ggg
.	.
.	.
.	.
.	.
.	.
.	.
.	32ffJkk 32aa#X 32ccc#X
4r	8..aa-XL 8..ccc-X 8..eee 8..ggg
.	.
.	.
.	.
.	.
.	.
.	.
.	32ffJkk 32aa#X 32ccc#X
=179	=179
2c-X 2cc-X	8..aa-XL 8..ccc-X 8..eee 8..ggg
.	32ee--Jkk 32gg 32bb-X
.	8..ffL 8..aa- 8..ccc#X 8..eeen
.	.
.	.
.	.
.	.
.	.
.	32cc-XJkk 32een 32gg
=180	=180
2F 2f	8..ddL 8..ff 8..aa#X 8..ccc#X
.	32a-XJkk 32cc#X 32ee
.	8..cc-XL 8..ee-- 8..gg 8..bb-X
.	.
.	.
.	.
.	.
.	.
.	32fJkk 32a#X 32cc#X
*v	*v
=181
*
8..a-XL 8..cc-X 8..een 8..gg/
32e--Jkk 32g 32b-X
8..fL 8..a- 8..cc#X 8..een
.
32c-XJkk 32en 32g
=182
8..dL 8..f 8..a#X 8..cc#X
32A-XJkk 32c#X 32e
8..c-XL 8..e-- 8..g 8..b-X
.
32FJkk 32A#X 32c#X
*clefF4
=183||
*M6/8
8r
8r
24DLL
24F
24A#XJJ
[4.C#X
.
.
=184
4C#]
.
24DLL
24F
24A#XJJ
4c#X
*clefG2
24dLL
24f
.
24a#XJJ
=185
*
[2.cc#X
.
.
.
.
.
=186
4.cc#_
.
.
8cc#]
8r
*clefF4
24DLL
24F
24A#XJJ
*
=187
4C#X
.
24DLL
24F
24A#XJJ
4c#X
*clefG2
24dLL
24f
.
24a#XJJ
=188
4c#X
24dLL
24f
24a#XJJ
4cc#X
24B-XLL
24d-X
.
24f#XJJ
=189
4A
24B-XLL
24d-X
24f#XJJ
4a
.
24b-XLL
24dd-X
24ff#XJJ
=190
4a
24b-XLL
24dd-X
24ff#XJJ
4aa
24bb-XLL
24ddd-X
.
24fff#XJJ
=191
4aaa
16r
*clefF4
16FF#X
[4.D-X
.
*
=192
8.D-]
*clefG2
8.B-X 8.d-X 8.f#X 8.a
.
.
8.B-L 8.d- 8.f# 8.a
8.B-J 8.d- 8.f# 8.a
.
.
=193
8B-X 8d-X 8f#X 8a
8ccL 8ff-X
[8ggJ [8ccc
40%3ggL] 40%3ccc]
40%3ff-X 40%3aa
40%3dd-X 40%3gg
40%3cc 40%3ff-
40%3aJ 40%3dd-
=194
40%3ccL 40%3ff-X
40%3aJ 40%3dd-X
20%3cc 20%3ff-
.
40%3a 40%3dd-
20%3cc 20%3ff-
.
.
40%3a 40%3dd-
.
40%3cc 40%3ff-L
.
40%3a 40%3dd-J
.
.
.
=195
8B-X 8d-X 8f#X 8a
8ccL 8ff-X
[8ggJ [8ccc
40%3ggL] 40%3ccc]
40%3ff-X 40%3aa
40%3dd-X 40%3gg
40%3cc 40%3ff-
40%3aJ 40%3dd-
=196
40%3ccL 40%3ff-X
40%3aJ 40%3dd-X
20%3cc 20%3ff-
.
40%3a 40%3dd-
20%3cc 20%3ff-
.
.
40%3a 40%3dd-
.
40%3ccL 40%3ff-
.
40%3aJ 40%3dd-
.
=197
*
*^
*	*^
2.E 2.A#X\	4r	8raa
.	.	.
.	.	8dd#XL 8gg
.	.	.
.	8r	[8aa#XJ [8ddd#X
.	.	.
.	[4.g	40%3aa#L] 40%3ddd#]
.	.	.
.	.	40%3gg 40%3bb#
.	.	.
.	.	40%3ee 40%3aa#
.	.	.
.	.	40%3dd# 40%3gg
.	.	40%3b#XJ 40%3ee
.	.	.
=198	=198	=198
4.A#X\	4g]	4a#X 4dd#X
.	.	.
.	.	.
.	[8g#X	8rff
.	.	.
[4.A#\	8g#L]	4rff
.	.	.
.	8f#X	.
.	.	.
.	8eJ	8rff
.	.	.
=199	=199	=199
4.A#]\	8d#XL	8rff
.	.	.
.	8B#X	8d#L 8gn
.	.	.
.	[8eJ	[8a#XJ [8dd#X
.	.	.
4.A#X\	4.e]	40%3a#L] 40%3dd#]
.	.	.
.	.	40%3g 40%3b#X
.	.	.
.	.	40%3e 40%3a#
.	.	.
.	.	40%3d# 40%3g
.	.	40%3B#J [40%3e
.	.	.
*	*v	*v
=200	=200
4.A#X 4.d#X	4.e]
.	.
.	.
.	.
.	.
4A# 4B#X	8eL
.	.
.	8g
.	.
8e 8f##X	8b#XJ
.	.
*	*
=201	=201
*	*
4.d#X 4.g#X	[4.dd#X
.	.
.	.
.	.
4.e 4.gn	4dd#]
*	*
.	.
.	.
.	.
*	*
.	.
.	8b#X
=202	=202
.	.
4.d#X 4.g#X	[4.dd#X
4.e 4.gn	4dd#]
*	*
.	.
.	.
.	.
*	*
.	.
.	8b#X
=203	=203
.	.
4.d#X 4.g#X	4.dd#X
[8qB-X [8qd-X [8qf#X [8qan	.
4.B-_ 4.d-_ 4.f#_ 4.a_	[4.ff#X
.	.
*	*
.	.
=204||	=204||
*M4/8	*M4/8
8B-] 8d-] 8f#] 8a]	8ff#]
*v	*v
8b-X 8dd-X 8ff#X 8aa
8b-XL 8dd-X 8ff#X 8aa
8b-J 8dd- 8ff# 8aa
.
.
=205
*
8b-XL 8dd-X 8ff#X 8aa
8gJ 8b- 8dd#X 8ff#
8eL 8g 8b#X 8dd#
8gJ 8b-X 8dd# 8ff#
.
.
*
*
=206
8b-XL 8dd-X 8ff#X 8aa
8gJ 8b- 8dd#X 8ff#
8eL 8g 8b#X 8dd#
8qf-X
48ccLL
48a
48g
48f-
48d-XJJJ
48r
=207||
*M6/8
.
.
40%3aa#XL 40%3ddd#X
.
.
40%3gg 40%3bb#X
.
.
.
40%3ee 40%3aa#
.
.
40%3dd# 40%3gg
.
.
40%3b#J 40%3ee
*^
[4.g	40%3a#XL 40%3dd#X
.	40%3g 40%3b#
.	.
.	40%3e 40%3a#
.	40%3d# 40%3g
.	.
.	40%3B#J 40%3e
=208	=208
.	.
4g]	40%3a#XL 40%3dd#X
.	.
.	.
.	40%3g 40%3b#X
.	.
.	.
.	40%3e 40%3a#
.	40%3d#X
[8g#X	.
.	40%3B#J 40%3e
8g#\L]	4.ryy
.	.
8f#X	.
.	.
.	.
8eJ	.
.	.
=209	=209
8d#XL	40%3aa#XL 40%3ddd#X
.	40%3ggn 40%3bb#X
8B#X	.
.	40%3ee 40%3aa#
.	40%3dd# 40%3gg
[8eJ	.
.	40%3b#J 40%3ee
.	.
4.e_	40%3a#XL 40%3dd#
.	.
.	.
.	40%3g 40%3b#
.	.
.	.
.	40%3e 40%3a#
.	40%3d# 40%3g
.	40%3B#J 40%3e
=210	=210
4.e]	40%3a#XL 40%3dd#X
.	40%3g 40%3b#X
.	.
.	40%3e 40%3a#
.	40%3d#X 40%3g
.	.
.	40%3B#XJ 40%3e
4.ryy	8eL
.	.
.	8g
.	.
.	.
.	8b#XJ
.	.
=211	=211
*	*
.	.
40%3a#XL 40%3dd#X	[4.dd#X
.	.
40%3g#X 40%3b#X	.
40%3e 40%3a#	.
.	.
40%3d#X 40%3g#	.
.	.
40%3B#XJ 40%3e	.
.	.
4.e 4.gn	4dd#]
.	.
.	.
.	.
.	.
.	8b#
.	.
=212	=212
8qd#X 8qg#X	.
40%3a#XL 40%3dd#X	[4.dd#X
.	.
40%3g# 40%3b#X	.
40%3e 40%3a#	.
.	.
40%3d# 40%3g#	.
.	.
40%3B#XJ 40%3e	.
.	.
4.e 4.gn	4dd#]
.	.
.	.
.	.
.	.
.	8b#
.	.
=213	=213
8qd#X 8qg#X	.
40%3a#XL 40%3dd#X	4.dd#X
.	.
40%3g# 40%3b#X	.
40%3e 40%3a#	.
.	.
40%3d# 40%3g#	.
.	.
40%3B#XJ 40%3e	.
.	.
40%3cc#XL 40%3ff#X	[4.ff#X
40%3b-X 40%3dd#	.
40%3gn 40%3cc#	.
40%3f#X 40%3b-	.
40%3d#J 40%3g	.
=214	=214
40%3f#XL 40%3b-X	4.ff#]
40%3d#XJ 40%3g	.
20%3f# 20%3b-	.
.	.
40%3d# 40%3g	.
*v	*v
.
40%3eeL 40%3aan
40%3dd-X 40%3ff#X
40%3b- 40%3ee
40%3a 40%3dd-
40%3f#J 40%3b-
=215
4r
8r
.
40%3ggL 40%3ccc
40%3ff-X 40%3aa
40%3dd-X 40%3gg
40%3cc 40%3ff-
.
40%3aJ 40%3dd-
=216
*^
4.g	40%3ccL 40%3ff-X
.	40%3aJ 40%3dd-X
.	20%3cc 20%3ff-
.	.
.	40%3a 40%3dd-
.	.
8eL	40%3cc#XL 40%3ff#X
.	40%3b-X 40%3dd#X
8d#X	.
.	40%3g 40%3cc#
.	40%3f#X 40%3b-
8c#XJ	.
.	40%3d#J 40%3g
=217	=217
*	*
2.ryy	8cnL
.	8A
.	.
.	[8d-JX
.	.
.	8d-L]
.	.
.	8f-X
.	.
.	.
.	8aJ
.	.
=218	=218
*	*
4.ryy	4.cc
.	.
.	.
.	.
.	.
*	*
*	*
.	.
8eL	40%3cc#XL 40%3ff#X
.	40%3b-X 40%3dd#X
8d#	.
.	40%3g 40%3cc#
.	40%3f# 40%3b-
8c#XJ	.
.	40%3d#J 40%3g
=219	=219
2.ryy	4ra
.	8ra
.	.
.	40%3gL 40%3ccn
.	40%3f-X 40%3a
.	40%3d-X 40%3g
.	40%3c 40%3f-
.	.
.	40%3AJ 40%3d-
=220	=220
4.G	40%3cL 40%3f-X
.	40%3AJ 40%3d-X
.	20%3c 20%3f-
.	.
.	40%3A 40%3d-
*clefF4	*clefF4
.	.
8EL	40%3c#XL 40%3f#X
.	40%3B-X 40%3d#X
8D#X	.
.	40%3G 40%3c#
.	40%3F#X 40%3B-
8C#XJ	.
.	40%3D#J 40%3G
*v	*v
=221
*
8CnL
8AA
.
[8D-XJ
.
8D-L]
.
8F-X
.
8AJ
.
=222
4.c
.
.
.
.
.
*^
8EL	40%3c#XL 40%3f#X
.	40%3B-X 40%3d#X
8D#X	.
.	40%3G 40%3c#
.	40%3F#X 40%3B-
8C#XJ	.
.	40%3D#J 40%3G
*v	*v
*
=223
4r
8r
.
40%3GL 40%3cn
40%3F-X 40%3A
40%3D-X 40%3G
40%3C 40%3F-
.
40%3AAJ 40%3D-
=224
40%3CL 40%3F-X
40%3AAJ 40%3D-X
20%3C 20%3F-
.
40%3AA 40%3D-
.
*^
8EL	40%3c#XL 40%3f#X
.	40%3B-X 40%3d#X
8D#X	.
.	40%3G 40%3c#
.	40%3F#X 40%3B-
8C#XJ	.
.	40%3D#J 40%3G
*v	*v
=225
4r
8r
.
32%3GGL 32%3Cn
32%3FF-X 32%3AA
32%3DD-X 32%3GG
.
32%3CCJ 32%3FF-
*
*clefG2
=226
*^
.	[8qG [8qg\
2.G] 2.g]	40%3ccL 40%3ff-X
.	40%3aJ 40%3dd-X
.	20%3cc 20%3ff-
.	.
.	40%3a 40%3dd-
.	20%3cc 20%3ff-
.	.
.	40%3a 40%3dd-
.	40%3ccL 40%3ff-
.	40%3aJ 40%3dd-
*v	*v
=227
2.r
=228||
*M2/4
20ggLL 20bb#X
20ee 20aa
20cc#X 20gg
20b#X 20ee
20aJJ 20cc#
20gLL 20b#
20e 20a
20c#X 20g
.
20B#X 20e
20AJJ 20c#
=229
*^
8E 8A#X	12r
.	12dd#XL 12gg
8r	.
.	[12aa#XJ [12ddd#X
8qg	.
50dd#LLL	20aa#LL] 20ddd#]
50b#X	.
50a#X	.
.	20gg 20bb#X
50g	.
50eJJJ	.
10r	20ee 20aa#
.	20dd# 20gg
20r	20b#JJ 20ee
=230	=230
*	*
4r	4a#X 4dd#X
.	.
.	.
.	.
*	*^
6A#X\	4g	4rff
12Bn\	.	.
*	*v	*v
*	*
=231	=231
8c 8f#X	12r
.	12bL 12ee-X
8r	.
.	[12ff#XJ [12bb
8qe-X	.
50bLLL	20ff#LL] 20bb]
50g#X	.
50f#	.
.	20ee- 20gg#X
50e-	.
50cJJJ	.
10r	20cc 20ff#
.	20b 20ee-
20r	20g#JJ 20cc
=232	=232
*	*
4r	4f#X 4b
.	.
.	.
.	.
6c 6f#	4r
12B 12gn	.
*	*
=233	=233
12B-XL 12a-X	12r
12c-XJ 12g	12cc-XL
.	.
12r	[12ddJ [12gg
8qc-	.
50gLLL	20ddLL] 20gg]
50e	.
50d	.
.	20cc- 20ee
50c-	.
50A-XJJJ	.
10r	20a- 20dd
.	20g 20cc-
20r	20eJJ 20a-
=234	=234
*	*
4r	4d 4g
.	.
.	.
*	*^
4A#X\	6d	[4g
.	12d#X	.
*	*v	*v
*v	*v
*
=235
[4A#X [4e 4g_
6A#] 6e] 6g]
[12A# 12d#X [12g
=236
4A#_ [4e 4g_
6A#] 6e] 6g]
12A#X 12e 12g
=237
*
8r
.
.
.
.
.
12r
.
.
.
.
48r
.
48G#X
4B#X
.
.
.
.
.
=238
8r
.
.
.
.
.
12r
.
.
.
.
48r
.
48G#X
[8d#X
.
.
12d#_L
.
48d#LL]
48B#XJJJ
*
=239
*^
2e	8r
.	8ee 8ggn 8bb#X 8ddd#X
.	8eeL 8gg 8bb# 8ddd#
.	8eeJ 8gg 8bb# 8ddd#
.	.
.	.
=240	=240
8r	8eeL 8gg 8bb#X 8ddd#X
8qf-X	.
48ccLLL	8dd-XJ 8ff-X 8aa 8ccc
48a	.
48g	.
48f-	.
48d-XJJJ	.
48r	.
8qd-	.
48aLLL	8b-XL 8dd- 8ff#X 8aa
48f#X	.
48e	.
48d-	.
48B-XJJJ	.
48r	.
8qf-X	.
48ccLLL	8dd-J 8ff-X 8aa 8ccc
48a	.
48g	.
48f-	.
48d-JJJ	.
48r	.
*v	*v
=241
*
8r
.
.
.
.
.
12r
.
.
.
.
48r
.
48Fn
4A
.
.
.
.
.
=242
8r
.
.
.
.
.
12r
.
.
.
.
48r
.
48F
[8c
.
.
12c_L
.
48cLL]
48AJJJ
*
=243
*^
2d-X	8r
.	8dd-X 8ff-X 8aa 8ccc
.	8dd-L 8ff- 8aa 8ccc
.	8dd-J 8ff- 8aa 8ccc
.	.
.	.
=244	=244
*	*
8r	8dd-XL 8ff-X 8aa 8ccc
8qd-X	.
48aLLL	8b-XJ 8dd- 8ff#X 8aa
48f#X	.
48e	.
48d-	.
48B-XJJJ	.
48r	.
8qB-	.
48f#LLL	8gL 8b- 8dd#X 8ff#X
48d#X	.
48c#X	.
48B-	.
48GJJJ	.
48r	.
8B- 8d- 8e 8f# 8a	8b-J 8dd- 8ff# 8aa
.	.
.	.
*v	*v
=245
12r
12aL
12f#XJ
[8b-XL
24b-L]
24dd-X
24ff#XJJ
=246
16qb-XLL
16qdd-X
16qff#XJJ
2aa
.
.
.
=247
12r
12aL
12f#XJ
8b-X
8r
.
.
=248
.
2r
.
.
.
=249
*
.
8r
8b-X 8dd-X 8ff#X 8aa
8b-L 8dd- 8ff# 8aa
8b-J 8dd- 8ff# 8aa
.
.
*
=250
8b-XL 8dd-X 8ff#X 8aa
8gJ 8b- 8dd#X 8ff#
8eL 8g 8b#X 8dd#
8gJ 8b-X 8dd# 8ff#
.
.
*
=251
8b-XL 8dd-X 8ff#X 8aa
8gJ 8b- 8dd#X 8ff#
8eL 8g 8b#X 8dd#
8d-XJ 8f-X 8a 8cc
.
.
=252
*
8B-XL 8d-X 8f#X 8a
8GJ 8B- 8d#X 8f#
*clefF4
8EL 8G 8B#X 8d#X
.
.
8D-XJ 8F-X 8A 8c
*
*clefG2
=253||
*M6/8
4r
.
.
8r
16qgLL
16qa#X
16qeeJJ
[4.gg
.
.
.
=254
4gg]
.
.
16qg#XLL
16qa#X
16qeeJJ
[8gg#X
*
8gg#L]
.
8ff#X
.
8eeJ
=255
8dd#XL
.
8b#X
.
[8eeJ
.
8eeL]
.
8ggn
8bb#J
*
*
=256
16qeeLL
16qgg
16qaa#X
16qbb#XJJ
[4.ddd#X
.
.
.
4ddd#_
.
8ddd#]
*
=257
4r
.
.
8r
16qgLL
16qa#X
16qeeJJ
[4.gg
.
.
.
=258
4gg]
.
.
16qg#XLL
16qa#X
16qeeJJ
[8gg#X
*
8gg#L]
.
8ff#X
.
8eeJ
=259
8dd#XL
.
8b#X
.
[8eeJ
.
8eeL]
.
8ggn
8bb#J
*
*
=260
16qeeLL
16qgg
16qaa#X
16qbb#XJJ
[4.ddd#X
.
.
.
8ddd#L]
16ddd#Jk
16r
32eLLL
32g
32a#X
32b#XJJJ
*
=261
4d#X
.
32eLLL
32g
32a#X
32b#XJJJ
4dd#X
32eLLL
32g
32a#
32b#JJJ
=262
4d#X
32eLLL
32g
32a#X
32b#XJJJ
4dd#X
32cLLL
32e-X
32f#X
32g#XJJJ
=263
*
4Bn
32cLLL
32e-X
32f#X
32g#XJJJ
4b
.
32ccLLL
32ee-X
32ff#X
32gg#XJJJ
*
=264
4b
32ccLLL
32ee-X
32ff#X
32gg#XJJJ
4bb
32fnLLL
32a-X
32b
32cc#XJJJ
=265
4e
.
32fLLL
32a-X
32b
32cc#XJJJ
4ee
32fLLL
32a-
32b
32cc#JJJ
=266
4e
32fLLL
32a-X
32b
32cc#XJJJ
4ee
32d-XLLL
32f-X
32g
32anJJJ
=267
*
4c
32d-XLLL
32f-X
32g
32aJJJ
4cc
.
32dd-XLLL
32ff-X
32gg
32aaJJJ
=268
*
4cc
32dd-XLLL
32ff-X
32gg
32aaJJJ
4ccc
24r
.
48eeLLL
48gg
48aa#X
48bb#XJJJ
=269
4ddd#X
16qb-XLL
16qdd-X
16qee
16qff#XJJ
8aan
8r
8r
24r
.
48eeLLL
48gg
48aa#X
48bb#XJJJ
=270
4ddd#X
16qb-XLL
16qdd-X
16qee
16qff#XJJ
8aan
8r
8r
24r
.
48ggLLL
48bb-X
48ccc#X
48dddnJJJ
=271
4fff#X
16qdd-XLL
16qff-X
16qgg
16qaaJJ
8cccn
8r
8r
24r
.
48ggLLL
48bb-X
48ccc#X
48ddd#XJJJ
=272
4fff#X
16qdd-XLL
16qff-X
16qgg
16qaaJJ
8cccn
8r
8r
24r
.
48bb-XLLL
48ddd-X
48eee
48fff#JJJ
*
*
=273||
*M2/4
8aaaL
8ggJ 8bb#X 8ddd#X
8ggL 8bb-X 8ddd# 8fff#X
8ff-XJ 8aa 8ccc
=274
8eeL 8gg 8bb#X 8ddd#X
8dd-XJ 8ff#X 8aa
8dd-L 8ff-X 8aa 8ccc
8b-XJ 8dd#X 8ff#X
=275
8b-XL 8dd-X 8ff#X 8aa
8gJ 8b#X 8dd#X
8gL 8b-X 8dd# 8ff#
8f-XJ 8a 8cc
=276
8eL 8g 8b#X 8dd#X
8d-XJ 8f#X 8a
8gL 8b-X 8dd#X 8ff#X
.
.
8f-XJ 8an 8cc
=277
8eL 8g 8b#X 8dd#X
.
.
8d-XJ 8f#X 8an
*^
[4g	8b-XL 8dd#X 8ff#X
.	.
.	.
.	8f-XJ 8an 8cc
=278	=278
6g]	8e 8b#X 8dd#X
.	.
.	.
.	8r
[12g#X	.
12g#L]	4r
.	.
12f#X	.
.	.
12eJ	.
*v	*v
=279
12r
.
12d#XL
.
12B#XJ
4B# 4d# [4e
=280||
*M6/8
*
*
8eL]
.
8g
.
8b#XJ
24eLL
24g
24ccJ
8dd#XJ
24r
.
48bb-XLLL
48ddd-X
48eee
48fff#XJJJ
*
*
=281||
*M2/4
8aaaL
8ggJ 8bb#X 8ddd#X
8ggL 8bb-X 8ddd# 8fff#X
8ff-XJ 8aa 8ccc
=282
8eeL 8gg 8bb#X 8ddd#X
8dd-XJ 8ff#X 8aa
8dd-L 8ff-X 8aa 8ccc
8b-XJ 8dd#X 8ff#X
=283
8b-XL 8dd-X 8ff#X 8aa
8gJ 8b#X 8dd#X
8gL 8b-X 8dd# 8ff#
8f-XJ 8a 8cc
=284
8eL 8g 8b#X 8dd#X
8d-XJ 8f#X 8a
8gL 8b-X 8dd#X 8ff#X
.
.
8f-XJ 8an 8cc
=285
8eL 8g 8b#X 8dd#X
.
.
8d-XJ 8f#X 8an
*^
[4g	8b-XL 8dd#X 8ff#X
.	.
.	.
.	8f-XJ 8an 8cc
=286	=286
6g]	4e 4b#X 4dd#X
.	.
.	.
.	.
[12g#X	.
12g#L]	4r
.	.
12f#X	.
.	.
12eJ	.
*v	*v
=287
12r
.
12d#XL
.
12B#XJ
4B# 4d# [4e
=288
12eL]
.
12g
.
12b#XJ
36eLL
36g
36ccJJ
6dd#X
.
=289
*
8ryy
.
.
.
.
.
12ryy
.
.
.
.
24ee
12ryy
.
.
.
.
.
24gg
12ryy
.
.
.
24dd#X
=290
12ryy
.
.
.
.
24ff#
12ryy
.
.
.
.
24ff#
*
.
.
*
4EX 4B-X
.
.
*
=291
*^
4g#X	[8dd#X
.	.
.	.
.	.
.	12dd#L]
.	24ddnJk
4dn	[8an
.	.
.	.
.	.
.	12aL]
.	24a-XJk
=292	=292
4d	[8an
.	.
.	.
.	.
.	12aL]
.	24a-XJk
4G#X	[8d#X
.	.
.	.
.	.
.	12d#L]
.	24dnJk
*v	*v
=293
*
8ryy
.
.
.
.
.
12ryy
.
.
.
.
24ee
12ryy
.
.
.
.
.
24gg
12ryy
.
.
.
24dd#
=294
12ryy
.
.
.
.
24ff#
8ryy
.
.
.
.
.
*
.
.
*
4EX 4B-X
.
.
=295
8ryy
.
.
.
.
.
.
.
12ryy
.
.
.
.
.
24eee
12ryy
.
.
.
.
.
.
24ggg
12ryy
.
.
.
.
.
.
[24ddd#
=296
12ddd#_L
.
.
.
.
.
24ddd#X_J
8ddd#_
12ddd#_L
.
.
.
.
.
24ddd#_J
8ddd#]
*
=297
*
2r
*
.
.
.
=298
*
4r
*
12ryy
.
.
.
.
.
24ggg
12ryy
.
.
.
24ddd#
.
=299
*
.
.
.
*
4r
12ryy
.
.
.
.
.
24fff#
12ryy
.
.
.
24ddd
.
=300
4r
12ryy
.
.
.
.
.
24fffn
12ryy
.
.
.
.
.
24ddd-
*
=301
8r
8gg 8bb 8ccc#X 8ggg
4r
.
.
=302
*
4r
12ryy
.
.
.
.
.
24bbb-
12ryy
.
.
.
24fff#
.
=303
*
.
.
.
*
4r
12ryy
.
.
.
.
.
24aaa
12ryy
.
.
.
24fff
.
*
=304
2r
.
.
.
.
.
.
.
.
.
=305
*
.
.
.
*
4r
12ryy
.
.
.
.
.
24aaa
12ryy
.
.
.
24fff
.
*
*
=306
*^
*	*
24r	8..anL
24fLL	.
24d-XJ	.
8fJ	.
.	32a-XJkk
24r	8..anL
24fLL	.
24d-J	.
8fJ	.
.	32a-XJkk
*	*
=307	=307
4ff#X	[8ccc#X
.	.
.	.
.	.
.	12ccc#L]
.	24cccnJk
4ccn	[8ggn
.	.
.	.
.	.
.	12ggL]
.	24gg-XJk
=308	=308
4cc	[8ggn
.	.
.	.
.	.
.	12ggL]
.	24gg-XJk
*	*
12f#XL	12cc#XL
.	.
.	.
12a#X	12dd
.	.
.	.
12f#J	12dd#XJ
*v	*v
=309
8e 8g#X 8a#X 8ee
*
16r
16ee 16gg#X 16aa#X 16eee
16r
16ggnLL 16aa# 16ddd#X 16gggn
16r
16dd#XJJ 16gg 16aa# 16ddd#X
*
=310
16r
8ff#XL 8aa#X 8eee 8fff#X
16ff#Jk 16aa# 16eee 16fff#
*
*^
*	*
8AnL 8an	4e 4b-X
8A-XJ 8a-X	.
=311	=311
8.dd#XL 8.ddd#X	4gg#X
.	.
.	.
16ddnJk 16dddn	.
8.anL 8.aan	4dd
.	.
.	.
16a-XJk 16aa-X	.
=312	=312
8.anL 8.aan	4dd
.	.
.	.
16a-XJk 16aa-X	.
8.d#XL 8.dd#X	4g#X
.	.
.	.
16dnJk 16ddn	.
*	*
*v	*v
=313
*
.
8..r
*
.
*8va
32ddd-X 32fff#X 32aaa
8..eeeL 8..ggg 8..bbb#X 8..dddd#X
.
32ddd-XJkk 32fff# 32aaa
=314
8..eeeL 8..ggg 8..bbb#X 8..dddd#X
.
32ddd-XJkk 32fff#X 32aaa
*
.
8..eeenL 8..ggg 8..bbb#X 8..dddd#X
*
.
.
.
32ddd-XJkk 32fff# 32aaa
=315
*
.
.
8..eeeL 8..gggn 8..bbb#X 8..dddd#X
*
.
32ddd-XJkk 32fff#X 32aaan
8..ddd-L 8..fff-X 8..aaa 8..cccc
.
32bb-XJkk 32ddd#X 32fff#X
=316
8..bb-XL 8..ddd-X 8..fff#X 8..aaa
.
32ggJkk 32bb#X 32ddd#X
*
*
8ggL 8bb-X 8ddd# 8fff#
8ff-XJ 8aa 8cccn
.
.
*X8va
*
*
*
=317
8eeL 8gg 8bb#X 8ddd#X
8dd-XJ 8ff#X 8aa
8dd-L 8ff-X 8aa 8ccc
8b-XJ 8dd#X 8ff#X
=318
8b-XL 8dd-X 8ff#X 8aa
8gJ 8b#X 8dd#X
8gL 8b-X 8dd# 8ff#
8f-XJ 8a 8cc
=319
*
8eL 8g 8b#X 8dd#X
8d-XJ 8f#X 8a
.
.
8d-L 8f-X 8a 8cc
8B-XJ 8d#X 8f#X
=320
8B-XL 8d-X 8f#X 8a
8GJ 8B#X 8d#X
.
.
8d-XL 8f-X 8a 8cc
8B-XJ 8d#X 8f#X
*
=321
8B-XL 8d-X 8f#X 8a
8GJ 8B#X 8d#X
*^
.	.
[4f-X	[4d-X 4a 4cc
=322	=322
.	.
6f-]	4d-] 4a 4cc
[12fn	.
.	.
12fL]	4d-X 4a 4cc
12e-X	.
12d-J	.
*v	*v
=323
4c
8dd-XL 8ff-X 8aa 8ccc
8b-XJ 8dd#X 8ff#X
=324
8b-XL 8dd-X 8ff#X 8aa
8gJ 8b#X 8dd#X
8dd-XL 8ff-X 8aa 8ccc
8b-XJ 8dd#X 8ff#X
=325
4c
*
*8va
8ddd-XL 8fff-X 8aaa 8cccc
8bb-XJ 8ddd#X 8fff#X
=326
8bb-XL 8ddd-X 8fff#X 8aaa
8ggJ 8bb#X 8ddd#X
8ddd-XL 8fff-X 8aaa 8cccc
8bb-XJ 8ddd#X 8fff#X
*X8va
*clefF4
=327
[8qC [8qc/
4C] 4G 4c] 4d-X 4g
*8va
*clefG2
8dddd-XL 8ffff-X 8gggg 8aaaa 8ccccc
8bbb-XJ 8dddd#X 8ffff#X
=328
8dddd-XL 8ffff-X 8gggg 8aaaa 8ccccc
8bbb-XJ 8dddd#X 8ffff#X
8dddd-XL 8ffff-X 8gggg 8aaaa 8ccccc
8bbb-J 8dddd#X 8ffff#X
=329
8dddd-XL 8ffff-X 8gggg 8aaaa 8ccccc
8bbb-XJ 8dddd#X 8ffff#X
8dddd-XL 8ffff-X 8gggg 8aaaa 8ccccc
8bbb-J 8dddd#X 8ffff#X
=330
8dddd-XL 8ffff-X 8gggg 8aaaa 8ccccc
8bbb-XJ 8dddd#X 8ffff#X
8dddd-XL 8ffff-X 8gggg 8aaaa 8ccccc
8dddd-J 8ffff#X 8aaaa#X
*X8va
*
=331
4ddd-X 4fff-X 4ggg 4aaa 4cccc 4dddd-X 4ffff-X 4gggg 4aaaa 4ccccc
4r
=332
*^
.	.
[2f-X	2d-X 2a 2cc
=333	=333
.	.
3f-]	2d-X 2a 2cc
[6fn	.
=334	=334
.	.
6f]	4d-X 4a 4cc
6e-X	.
.	4r
6d-	.
*v	*v
=335
6E 6A#X 6B#X
12eL
12g#X
12a#X
12b#XJ
=336
2dd#X
.
.
.
.
=337
6r
12eeL
12gg#X
12aa#X
12bb#XJ
*
=338
2ddd#X
.
.
.
.
=339
6r
*8va
12eeeL
12ggg#X
12aaa#X
12bbb#XJ
=340
[2dddd#X
.
.
.
.
=341
2dddd#_
.
.
.
.
=342
2dddd#_
.
.
.
.
=343
2dddd#]
.
*X8va
==
*-
